X: 83
T:Star of Munster
R:Reel
M:C
L:1/8
K:ADor
ed|c2 Ac BAGB|AGEF GEDG|EAAB cBcd|eaaf gedB|
cB Ac BAGB|AGEF GEDG|EAAB cBcd|ecdB A2 :|
cd | eaag ageg|ag bg agef|g2 ga gd (3ddd|gaba gedg|
eaag ageg|agbg agef|(3ggg e a2 ga|bgaf gedB :|

